assets/icons/tram/tram_T5_carto_RVB.svg

<svg id="tram_T5_carto_RVB" xmlns="http://www.w3.org/2000/svg" width="311.7" height="311.8" viewBox="0 0 311.7 311.8">
	<path id="Tracé_17" data-name="Tracé 17" d="M28.3,311.8A28.338,28.338,0,0,1,0,283.5V28.3A28.338,28.338,0,0,1,28.3,0H283.4a28.338,28.338,0,0,1,28.3,28.3V283.4a28.338,28.338,0,0,1-28.3,28.3H28.3Z" fill="#fff"/>
	<path id="Tracé_18" data-name="Tracé 18" d="M120,122.3v89.6H95.9V122.3H62.3V102.7h91.3v19.6H120Zm88,92.2c-12.7,0-22.4-2.8-30.8-7.9l8.8-17c6,4.2,12.2,7,20.7,7s19.2-5.1,19.2-17.9c0-7.9-5.3-18.7-25.4-19-6.2,0-13.5-.2-17-.2l4.3-56.8h57.4V121H206l-1.6,20.7c.6,0,2,.2,3.1.2,29.8,1.4,41.9,18.3,41.9,34.6.1,20.8-16.5,38-41.4,38"/>
	<path id="Tracé_19" data-name="Tracé 19" d="M283.5,57.4H28.3A14.19,14.19,0,0,1,14.1,43.2V29.1A14.19,14.19,0,0,1,28.3,14.9H283.4a14.19,14.19,0,0,1,14.2,14.2V43.3a14.084,14.084,0,0,1-14.1,14.1m14.1,226.8V270a14.19,14.19,0,0,0-14.2-14.2H28.3A14.19,14.19,0,0,0,14.1,270v14.2a14.19,14.19,0,0,0,14.2,14.2H283.4a14.19,14.19,0,0,0,14.2-14.2" fill="#640082"/>
</svg>

<?xml version="1.0" encoding="utf-8"?>
<!-- Generator: Adobe Illustrator 26.3.1, SVG Export Plug-In . SVG Version: 6.00 Build 0)  -->
<svg version="1.1" id="Layer_1" xmlns="http://www.w3.org/2000/svg" xmlns:xlink="http://www.w3.org/1999/xlink" x="0px" y="0px"
	 viewBox="0 0 311.8 311.8" style="enable-background:new 0 0 311.8 311.8;" xml:space="preserve">
<style type="text/css">
	.st0{fill:#FFFFFF;}
	.st1{fill:#640082;}
</style>
<g>
	<path class="st0" d="M28.3,311.8C12.7,311.8,0,299.1,0,283.5V28.3C0,12.7,12.7,0,28.3,0h255.1c15.6,0,28.3,12.7,28.3,28.3v255.1
		c0,15.6-12.7,28.3-28.3,28.3H28.3z"/>
	<path d="M120,122.3v89.6H95.9v-89.6H62.3v-19.6h91.3v19.6H120z M208,214.5c-12.7,0-22.4-2.8-30.8-7.9l8.8-17c6,4.2,12.2,7,20.7,7
		s19.2-5.1,19.2-17.9c0-7.9-5.3-18.7-25.4-19c-6.2,0-13.5-0.2-17-0.2l4.3-56.8h57.4v18.3H206l-1.6,20.7c0.6,0,2,0.2,3.1,0.2
		c29.8,1.4,41.9,18.3,41.9,34.6C249.5,197.3,232.9,214.5,208,214.5"/>
	<path class="st1" d="M283.5,57.4H28.3c-7.8,0-14.2-6.3-14.2-14.2V29.1c0-7.8,6.3-14.2,14.2-14.2h255.1c7.8,0,14.2,6.3,14.2,14.2
		v14.2C297.6,51.1,291.3,57.4,283.5,57.4 M297.6,284.2V270c0-7.8-6.3-14.2-14.2-14.2H28.3c-7.8,0-14.2,6.3-14.2,14.2v14.2
		c0,7.8,6.3,14.2,14.2,14.2h255.1C291.3,298.4,297.6,292,297.6,284.2"/>
</g>
</svg>
